justvector/bnter.svg

<?xml version="1.0" encoding="iso-8859-1"?>
<!-- Generator: Adobe Illustrator 15.0.0, SVG Export Plug-In . SVG Version: 6.00 Build 0)  -->
<!DOCTYPE svg PUBLIC "-//W3C//DTD SVG 1.1//EN" "http://www.w3.org/Graphics/SVG/1.1/DTD/svg11.dtd">
<svg version="1.1" id="Layer_1" xmlns="http://www.w3.org/2000/svg" xmlns:xlink="http://www.w3.org/1999/xlink" x="0px" y="0px"
	 width="100px" height="100px" viewBox="0 0 100 100" style="enable-background:new 0 0 100 100;" xml:space="preserve">
<path id="Bnter" d="M12.086,75.215h3.385c0.162,1.23,0.357,4.701-1.729,8.285c0,0,9.529-0.459,11.465-8.285h62.707
	c3.914,0,7.086-3.18,7.086-7.104V23.603c0-3.923-3.172-7.103-7.086-7.103H12.086C8.174,16.5,5,19.68,5,23.603v44.509
	C5,72.035,8.174,75.215,12.086,75.215z M80.412,50.71c1.861,0,3.369,1.511,3.369,3.373c0,1.863-1.508,3.374-3.369,3.374
	c-1.857,0-3.361-1.511-3.361-3.374C77.051,52.221,78.555,50.71,80.412,50.71z M60.244,60.975c0.018,0.227,0.033,0.453,0.033,0.684
	c0,4.709-3.807,8.523-8.502,8.523c-3.768,0-6.957-2.455-8.076-5.855L60.244,60.975z M19.943,50.71c1.857,0,3.365,1.511,3.365,3.373
	c0,1.863-1.508,3.374-3.365,3.374s-3.367-1.511-3.367-3.374C16.576,52.221,18.086,50.71,19.943,50.71z"/>
</svg>

<?xml version="1.0" encoding="UTF-8" standalone="no"?>
<!DOCTYPE svg PUBLIC "-//W3C//DTD SVG 1.1//EN" "http://www.w3.org/Graphics/SVG/1.1/DTD/svg11.dtd">
<svg width="100%" height="100%" viewBox="0 0 100 100" version="1.1" xmlns="http://www.w3.org/2000/svg" xmlns:xlink="http://www.w3.org/1999/xlink" xml:space="preserve" xmlns:serif="http://www.serif.com/" style="fill-rule:evenodd;clip-rule:evenodd;stroke-linejoin:round;stroke-miterlimit:2;">
    <path id="Bnter" d="M12.086,75.215L15.471,75.215C15.633,76.445 15.828,79.916 13.742,83.5C13.742,83.5 23.271,83.041 25.207,75.215L87.914,75.215C91.828,75.215 95,72.035 95,68.111L95,23.603C95,19.68 91.828,16.5 87.914,16.5L12.086,16.5C8.174,16.5 5,19.68 5,23.603L5,68.112C5,72.035 8.174,75.215 12.086,75.215ZM85.976,32.322C87.789,32.739 92.795,34.319 92.224,50.241C91.93,58.429 82.306,57.457 80.445,57.457C78.588,57.457 70.531,55.424 70.782,53.578C72.989,37.328 77.886,30.462 85.976,32.322ZM69.288,21.393C69.296,21.496 63.628,27.104 62.239,36.283C60.477,47.924 60.277,61.533 60.277,61.659C60.277,66.368 56.47,70.182 51.775,70.182C48.007,70.182 44.818,67.727 43.699,64.327C43.699,64.327 56.987,66.105 57.646,47.481C58.304,28.858 69.288,21.393 69.288,21.393ZM19.943,50.71C21.8,50.71 23.308,52.221 23.308,54.083C23.308,55.946 21.8,57.457 19.943,57.457C18.086,57.457 16.576,55.946 16.576,54.083C16.576,52.221 18.086,50.71 19.943,50.71Z" style="fill-rule:nonzero;"/>
</svg>
